src/img/tg-2.svg

<svg width="19" height="17" viewBox="0 0 19 17" fill="none" xmlns="http://www.w3.org/2000/svg">
<g clip-path="url(#clip0)">
<path d="M15.3807 16.103C15.2369 16.103 15.094 16.0637 14.9714 15.987L10.3408 13.0875L7.85713 14.7372C7.66234 14.8665 7.41127 14.899 7.18509 14.8244C6.9592 14.7496 6.78764 14.5768 6.72641 14.3627L5.47934 10.0002L1.02342 8.42744C0.742907 8.32839 0.556868 8.08066 0.554827 7.80342C0.552785 7.52618 0.735131 7.27612 1.01429 7.17357L17.9573 0.950414C18.0342 0.920267 18.1156 0.902861 18.1976 0.898195C18.2269 0.89658 18.2564 0.89658 18.2857 0.898106C18.4556 0.907437 18.6224 0.971319 18.7527 1.08921C18.7662 1.10142 18.779 1.11389 18.7912 1.1269C18.8991 1.24067 18.9584 1.37938 18.9695 1.52069C18.9723 1.55622 18.9721 1.5922 18.9687 1.62818C18.9663 1.65384 18.9624 1.67941 18.9567 1.7048L16.0968 15.5561C16.0508 15.7786 15.8868 15.9649 15.6601 16.0516C15.5702 16.0861 15.4752 16.103 15.3807 16.103ZM10.7474 11.7159L14.8722 14.2985L17.0975 3.5207L9.06036 10.6596L10.7279 11.7038C10.7346 11.7076 10.741 11.7117 10.7474 11.7159ZM7.31359 11.1415L7.86587 13.0733L9.05579 12.2829L7.49768 11.3073C7.42527 11.262 7.36326 11.2057 7.31359 11.1415ZM3.28963 7.78628L6.34927 8.8661C6.56846 8.94344 6.73389 9.11355 6.79376 9.32296L7.18179 10.6804C7.19957 10.5238 7.27646 10.3765 7.40136 10.2655L15.0596 3.46327L3.28963 7.78628Z" fill="white"/>
</g>
<defs>
<clipPath id="clip0">
<rect width="18.4167" height="17" fill="white" transform="translate(0.554779)"/>
</clipPath>
</defs>
</svg>

<svg width="19" height="17" fill="none" xmlns="http://www.w3.org/2000/svg"><g clip-path="url(#a)"><path d="M15.38 16.103a.773.773 0 0 1-.409-.116l-4.63-2.9-2.484 1.65a.78.78 0 0 1-.672.087.697.697 0 0 1-.459-.461L5.48 10 1.023 8.427a.677.677 0 0 1-.468-.624.675.675 0 0 1 .46-.63L17.956.95a.78.78 0 0 1 .834.177.644.644 0 0 1 .166.578l-2.86 13.851a.687.687 0 0 1-.437.496.78.78 0 0 1-.28.051Zm-4.633-4.387 4.125 2.583L17.098 3.52 9.06 10.66l1.668 1.044a.353.353 0 0 1 .02.012Zm-3.433-.574.552 1.931 1.19-.79-1.558-.976a.705.705 0 0 1-.184-.165ZM3.29 7.786l3.06 1.08a.697.697 0 0 1 .444.457l.388 1.357a.655.655 0 0 1 .22-.415l7.658-6.802L3.29 7.786Z" fill="#fff"/></g><defs><clipPath id="a"><path fill="#fff" transform="translate(.555)" d="M0 0h18.417v17H0z"/></clipPath></defs></svg>
